packages/ffe-icons/icons/open/300/sm/nest_detect.svg

<svg xmlns="http://www.w3.org/2000/svg" height="20" viewBox="0 -960 960 960" width="20"><path d="M371.778-106.001q-50.932 0-86.354-35.58-35.423-35.58-35.423-86.419v-561.692q0-26.623 18.842-45.465 18.842-18.842 45.465-18.842h115.384q26.623 0 45.465 18.842 18.842 18.842 18.842 45.465V-228q0 50.839-35.645 86.419t-86.576 35.58Zm-69.779-219.382q16.308-13.385 34.001-19.001 17.692-5.615 36-5.615t36 5.615q17.693 5.616 34.001 19.001v-464.309q0-5.385-3.462-8.847-3.462-3.462-8.847-3.462H314.308q-5.385 0-8.847 3.462-3.462 3.462-3.462 8.847v464.309ZM372-157.999q29.846 0 49.924-20.577 20.077-20.578 20.077-49.424t-20.077-49.424Q401.846-298.001 372-298.001q-28.846 0-49.424 20.577-20.577 20.578-20.577 49.424t20.577 49.424q20.578 20.577 49.424 20.577Zm278.308-92.002q-26.623 0-45.465-18.842-18.842-18.842-18.842-45.465v-331.384q0-26.623 18.842-45.465 18.842-18.842 45.465-18.842h43.384q26.623 0 45.465 18.842 18.842 18.842 18.842 45.465v331.384q0 26.623-18.842 45.465-18.842 18.842-45.465 18.842h-43.384Zm0-51.998h43.384q5.385 0 8.847-3.462 3.462-3.462 3.462-8.847v-331.384q0-5.385-3.462-8.847-3.462-3.462-8.847-3.462h-43.384q-5.385 0-8.847 3.462-3.462 3.462-3.462 8.847v331.384q0 5.385 3.462 8.847 3.462 3.462 8.847 3.462ZM301.999-802.001H442.001 301.999Zm348.309 500.002h-12.309 68.002-55.693Z"/></svg>

<svg xmlns="http://www.w3.org/2000/svg" height="20" viewBox="0 -960 960 960" width="20"><path d="M371.78-106q-50.93 0-86.36-35.58Q250-177.16 250-228v-561.69q0-26.63 18.84-45.47T314.31-854h115.38q26.63 0 45.47 18.84T494-789.69V-228q0 50.84-35.65 86.42Q422.71-106 371.78-106ZM302-325.38q16.31-13.39 34-19 17.69-5.62 36-5.62t36 5.62q17.69 5.61 34 19v-464.31q0-5.39-3.46-8.85t-8.85-3.46H314.31q-5.39 0-8.85 3.46t-3.46 8.85v464.31ZM372-158q29.85 0 49.92-20.58Q442-199.15 442-228t-20.08-49.42Q401.85-298 372-298q-28.85 0-49.42 20.58Q302-256.85 302-228t20.58 49.42Q343.15-158 372-158Zm278.31-92q-26.63 0-45.47-18.84T586-314.31v-331.38q0-26.63 18.84-45.47T650.31-710h43.38q26.63 0 45.47 18.84T758-645.69v331.38q0 26.63-18.84 45.47T693.69-250h-43.38Zm0-52h43.38q5.39 0 8.85-3.46t3.46-8.85v-331.38q0-5.39-3.46-8.85t-8.85-3.46h-43.38q-5.39 0-8.85 3.46t-3.46 8.85v331.38q0 5.39 3.46 8.85t8.85 3.46ZM302-802h140-140Zm348.31 500H638 706h-55.69Z"/></svg>
